contributed-vectors/mint_mobile.svg

<?xml version="1.0" encoding="UTF-8" standalone="no"?>
<svg
   width="192"
   height="192"
   viewBox="0 0 192 192"
   fill="none"
   version="1.1"
   id="svg36"
   sodipodi:docname="mint_mobile.svg"
   inkscape:version="1.2 (dc2aedaf03, 2022-05-15)"
   inkscape:export-filename="mint_mobile.png"
   inkscape:export-xdpi="96"
   inkscape:export-ydpi="96"
   xmlns:inkscape="http://www.inkscape.org/namespaces/inkscape"
   xmlns:sodipodi="http://sodipodi.sourceforge.net/DTD/sodipodi-0.dtd"
   xmlns="http://www.w3.org/2000/svg"
   xmlns:svg="http://www.w3.org/2000/svg">
  <defs
     id="defs40" />
  <sodipodi:namedview
     id="namedview38"
     pagecolor="#505050"
     bordercolor="#eeeeee"
     borderopacity="1"
     inkscape:showpageshadow="0"
     inkscape:pageopacity="0"
     inkscape:pagecheckerboard="0"
     inkscape:deskcolor="#505050"
     showgrid="false"
     inkscape:zoom="1.2291667"
     inkscape:cx="-80.542374"
     inkscape:cy="30.101695"
     inkscape:window-width="1884"
     inkscape:window-height="1052"
     inkscape:window-x="36"
     inkscape:window-y="0"
     inkscape:window-maximized="1"
     inkscape:current-layer="svg36" />
  <path
     d="M162 20H30C24.4772 20 20 24.4772 20 30V162C20 167.523 24.4772 172 30 172H162C167.523 172 172 167.523 172 162V30C172 24.4772 167.523 20 162 20Z"
     fill="#98DC9A"
     id="path2" />
  <path
     d="m 139.448,118.479 c -2.46463,-1.74 -5.52991,-5.23208 -7.65025,-5.36195 -5.66473,9.88206 -17.29367,7.44402 -22.99828,5.23282 -3.73016,2.28318 -7.83231,5.32889 -12.45207,9.21013 l -13.0352,-9 c -9.4435,2.704 -16.6625,3.284 -23.3262,-4.237 -1.694,0.088 -3.5898,1.351 -7.466,4.237 1.1703,-4.318 2.1793,-5.731 5.4078,-7.749 l -5.6903,0.323 c 0.4603,-4.363 1.391,-6.746 3.6725,-10.937 l -2.5022,-1.9773 v -6.9012 h 5.65 c -2.1976,-4.2281 -3.1266,-7.392 -4.7218,-13.1971 2.6898,1.1915 4.2964,1.8619 6.78,2.6636 -0.1631,1.0927 2.1825,6.5756 3.511,8.2734 4.4417,-4.4706 8.011,-6.7223 15.4163,-10.4931 -3.0637,-2.5703 -5.33,-3.7876 -10.1296,-5.6501 l -0.5649,-6.0537 c 6.2149,1.574 10.0068,3.9285 17.4341,9.8474 7.2726,-0.8696 11.3183,-0.8528 18.4831,0 11.07,-9.2447 18.834,-11.1131 33.128,-12.2689 -0.874,13.8109 -1.795,20.5338 -5.711,27.1536 h 5.711 v 6.9481 l -2.375,1.8293 c 1.957,3.801 2.851,6.043 3.744,10.427 h -5.384 c 3.744,2.94 5.069,5.632 5.069,7.681 z"
     fill="#ffffff"
     id="path421"
     sodipodi:nodetypes="ccccccccccccccccccccccccccccc" />
  <path
     d="M54.804 92.9773V97.6908C56.2485 98.0124 56.8996 98.5707 57.7011 100.423V102.392C59.4328 114.515 62.5642 119.425 73.785 119.425C84.0569 119.425 90.5094 113.922 93.0478 102.724C94.6609 98.3352 97.9613 98.5838 98.9784 102.724C102.679 117.788 110.626 118.903 119.205 119.44C128.445 119.44 132.264 111.874 132.919 107.472L134.356 99.9604C134.945 98.7355 135.816 98.2879 137.157 97.3958V92.6122C131.821 92.4195 123.649 91.8758 117.714 91.6664C111.257 91.6664 107.26 92.6966 101.345 95.577H91.5777C86.5741 93.5024 83.7546 92.6371 78.6824 92.0011H65.7227C61.3719 92.0011 59.1248 91.9076 54.804 92.9773Z"
     fill="#98DC9A"
     id="path6" />
  <path
     d="M73.1148 117.76C65.7198 117.76 61.4499 114.357 59.9338 102.722C59.9338 95.2962 64.1418 93.78 74.4762 93.78C83.4183 93.78 90.3492 94.1203 89.9469 102.722C89.9469 113.367 82.4591 117.76 73.1148 117.76Z"
     fill="white"
     id="path8" />
  <path
     d="M131.718 101.763C131.718 112.871 127.231 117.791 118.351 117.791C107.119 117.791 102.138 111.696 102.138 102.66C102.138 95.2962 105.387 93.9037 117.052 93.9037C127.169 93.9037 131.718 94.2441 131.718 101.763Z"
     fill="white"
     id="path10" />
  <path
     d="M84.9027 95.6861C77.6093 95.6861 75.3721 95.6861 71.6072 99.3784C72.4075 97.2139 73.517 94.4129 78.5732 94.4129C78.5732 94.4129 83.2657 94.4129 84.9027 95.6861Z"
     fill="#98DC9A"
     id="path12" />
  <path
     d="M111.13 95.3587C109.529 95.3587 108.707 95.2157 107.038 95.7588C108.111 94.9767 109.893 94.4129 113.003 94.4129C117.623 94.4129 119.751 96.7774 120.624 99.5785C118.096 96.9593 115.768 95.3587 111.13 95.3587Z"
     fill="#98DC9A"
     id="path14" />
  <path
     d="M85.1391 105.308H79.0279C78.3732 104.78 77.7002 100.142 81.8835 100.142C85.4483 100.142 86.194 103.962 85.1391 105.308Z"
     fill="#98DC9A"
     id="path16" />
  <path
     d="M113.185 105.235H107.038C105.528 103.362 107.038 100.124 110.02 100.124C112.949 100.124 114.713 103.198 113.185 105.235Z"
     fill="#98DC9A"
     id="path18" />
  <path
     d="M96.3318 125.359L90.4053 120.507L101.783 120.506L96.3318 125.359Z"
     fill="#98DC9A"
     id="path20" />
  <path
     d="M67.7595 66.9492L55.5423 77.1265C60.0352 79.529 62.978 80.4067 68.993 81.1121V72.2869C68.993 70.2705 68.5898 68.7522 67.7595 66.9492Z"
     fill="white"
     id="path22" />
  <ellipse
     cx="58.5846"
     cy="95.7861"
     rx="2.30988"
     ry="0.882149"
     fill="white"
     id="ellipse24" />
  <ellipse
     cx="133.233"
     cy="95.8097"
     rx="2.30988"
     ry="0.882149"
     fill="white"
     id="ellipse26" />
  <path
     d="M69.0973 112.947L64.6048 112.947C66.8238 115.257 68.4061 116.676 72.8986 116.676C75.4631 116.676 76.5544 116.676 78.4823 116.039C75.1721 114.093 72.7349 112.947 69.0973 112.947Z"
     fill="#98DC9A"
     id="path28" />
  <path
     d="M118.842 116.676C116.041 116.676 115.568 116.676 113.476 116.094C115.095 114.711 117.623 113.184 120.679 113.184H127.117C125.298 115.275 122.261 116.676 118.842 116.676Z"
     fill="#98DC9A"
     id="path30" />
  <path
     d="M127.778 88.6798C122.886 83.9293 119.241 81.6915 111.812 78.5499C119.166 73.4968 123.247 71.9074 133.092 70.1756C133.092 72.9512 130.885 84.3147 127.778 88.6798Z"
     fill="#98DC9A"
     id="path32" />
</svg>

<svg xmlns="http://www.w3.org/2000/svg" width="192" height="192" fill="none"><path fill="#98DC9A" d="M162 20H30c-5.523 0-10 4.477-10 10v132c0 5.523 4.477 10 10 10h132c5.523 0 10-4.477 10-10V30c0-5.523-4.477-10-10-10Z"/><path fill="#fff" d="M139.448 118.479c-2.465-1.74-5.53-5.232-7.65-5.362-5.665 9.882-17.294 7.444-22.999 5.233-3.73 2.283-7.832 5.329-12.452 9.21l-13.035-9c-9.443 2.704-16.662 3.284-23.326-4.237-1.694.088-3.59 1.351-7.466 4.237 1.17-4.318 2.18-5.731 5.408-7.749l-5.69.323c.46-4.363 1.39-6.746 3.672-10.937l-2.502-1.977v-6.901h5.65c-2.198-4.229-3.127-7.393-4.722-13.198 2.69 1.192 4.296 1.862 6.78 2.664-.163 1.093 2.183 6.576 3.511 8.273 4.442-4.47 8.011-6.722 15.416-10.493-3.063-2.57-5.33-3.787-10.13-5.65l-.564-6.054c6.215 1.574 10.007 3.929 17.434 9.848 7.272-.87 11.318-.853 18.483 0 11.07-9.245 18.834-11.113 33.128-12.269-.874 13.81-1.795 20.534-5.711 27.154h5.711v6.948l-2.375 1.829c1.957 3.801 2.851 6.043 3.744 10.427h-5.384c3.744 2.94 5.069 5.632 5.069 7.681z"/><path fill="#98DC9A" d="M54.804 92.977v4.714c1.444.321 2.096.88 2.897 2.732v1.969c1.732 12.123 4.863 17.033 16.084 17.033 10.272 0 16.724-5.503 19.263-16.701 1.613-4.389 4.913-4.14 5.93 0 3.701 15.064 11.648 16.179 20.227 16.716 9.24 0 13.059-7.566 13.714-11.968l1.437-7.512c.589-1.224 1.46-1.672 2.801-2.564v-4.784c-5.336-.192-13.508-.736-19.443-.946-6.457 0-10.454 1.03-16.369 3.911h-9.767c-5.004-2.075-7.823-2.94-12.896-3.576h-12.96c-4.35 0-6.597-.093-10.918.976Z"/><path fill="#fff" d="M73.115 117.76c-7.395 0-11.665-3.403-13.181-15.038 0-7.426 4.208-8.942 14.542-8.942 8.942 0 15.873.34 15.47 8.942 0 10.645-7.487 15.038-16.831 15.038ZM131.718 101.763c0 11.108-4.487 16.028-13.367 16.028-11.232 0-16.213-6.095-16.213-15.131 0-7.364 3.249-8.756 14.914-8.756 10.117 0 14.666.34 14.666 7.859Z"/><path fill="#98DC9A" d="M84.903 95.686c-7.294 0-9.53 0-13.296 3.692.8-2.164 1.91-4.965 6.966-4.965 0 0 4.693 0 6.33 1.273ZM111.13 95.359c-1.601 0-2.423-.143-4.092.4 1.073-.782 2.855-1.346 5.965-1.346 4.62 0 6.748 2.364 7.621 5.166-2.528-2.62-4.856-4.22-9.494-4.22ZM85.14 105.308h-6.112c-.655-.528-1.328-5.166 2.855-5.166 3.565 0 4.311 3.82 3.256 5.166ZM113.185 105.235h-6.147c-1.51-1.873 0-5.111 2.982-5.111 2.929 0 4.693 3.074 3.165 5.111ZM96.332 125.359l-5.927-4.852 11.378-.001-5.451 4.853Z"/><path fill="#fff" d="M67.76 66.95 55.541 77.125c4.493 2.403 7.436 3.28 13.451 3.986v-8.825c0-2.017-.403-3.535-1.233-5.338Z"/><ellipse cx="58.585" cy="95.786" fill="#fff" rx="2.31" ry=".882"/><ellipse cx="133.233" cy="95.81" fill="#fff" rx="2.31" ry=".882"/><path fill="#98DC9A" d="M69.097 112.947h-4.492c2.219 2.31 3.801 3.729 8.294 3.729 2.564 0 3.655 0 5.583-.637-3.31-1.946-5.747-3.092-9.385-3.092ZM118.842 116.676c-2.801 0-3.274 0-5.366-.582 1.619-1.383 4.147-2.91 7.203-2.91h6.438c-1.819 2.091-4.856 3.492-8.275 3.492ZM127.778 88.68c-4.892-4.75-8.537-6.989-15.966-10.13 7.354-5.053 11.435-6.643 21.28-8.374 0 2.775-2.207 14.139-5.314 18.504Z"/></svg>
